**harm	**harte	**timestamp	**phrase	**leadinstrument	**kern
*M4/4	*M4/4	*	*	*	*
*E:	*E:	*	*	*	*E:
1r;	N	0	.	r	1r;
=1	=1	=1	=1	=1	=1
*>A_intro	*>A_intro	*>A_intro	*>A_intro	*>A_intro	*>A_intro
1I	E:maj	0.833	newline	r	1E 1g# 1b
=2	=2	=2	=2	=2	=2
1I	E:maj	2.971	.	r	1E 1g# 1b
=3	=3	=3	=3	=3	=3
*>A_verse	*>A_verse	*>A_verse	*>A_verse	*>A_verse	*>A_verse
1I	E:maj	5.11	newline	voice	1E 1g# 1b
=4	=4	=4	=4	=4	=4
1I	E:maj	7.199	.	voice	1E 1g# 1b
=5	=5	=5	=5	=5	=5
1I	E:maj	9.288	.	voice	1E 1g# 1b
=6	=6	=6	=6	=6	=6
1I	E:maj	11.377	.	voice	1E 1g# 1b
=7	=7	=7	=7	=7	=7
1V	B:maj	13.466	newline	voice	1B 1dd# 1ff#
=8	=8	=8	=8	=8	=8
1V	B:maj	15.483	.	voice	1B 1dd# 1ff#
=9	=9	=9	=9	=9	=9
1I	E:maj	17.5	.	voice	1E 1g# 1b
=10	=10	=10	=10	=10	=10
1I	E:maj	19.517	.	voice	1E 1g# 1b
=11	=11	=11	=11	=11	=11
1I	E:maj	21.534	newline	voice	1E 1g# 1b
=12	=12	=12	=12	=12	=12
1I	E:maj	23.556	.	voice	1E 1g# 1b
=13	=13	=13	=13	=13	=13
1I	E:maj	25.577	.	voice	1E 1g# 1b
=14	=14	=14	=14	=14	=14
1I	E:maj	27.598	.	voice	1E 1g# 1b
=15	=15	=15	=15	=15	=15
1V	B:maj	29.619	newline	voice	1B 1dd# 1ff#
=16	=16	=16	=16	=16	=16
1V	B:maj	31.554	.	voice	1B 1dd# 1ff#
=17	=17	=17	=17	=17	=17
1I	E:maj	33.488	.	voice	1E 1g# 1b
=18	=18	=18	=18	=18	=18
1I	E:maj	35.423	.	voice	1E 1g# 1b
=19	=19	=19	=19	=19	=19
*>B_verse	*>B_verse	*>B_verse	*>B_verse	*>B_verse	*>B_verse
1IV	A:maj	37.358	newline	voice	1A 1cc# 1ee
=20	=20	=20	=20	=20	=20
1IV	A:maj	39.357	.	voice	1A 1cc# 1ee
=21	=21	=21	=21	=21	=21
1IV	A:maj	41.356	.	voice	1A 1cc# 1ee
=22	=22	=22	=22	=22	=22
1IV	A:maj	43.354	.	voice	1A 1cc# 1ee
=23	=23	=23	=23	=23	=23
1I	E:maj	45.353	newline	voice	1E 1g# 1b
=24	=24	=24	=24	=24	=24
1I	E:maj	47.369	.	voice	1E 1g# 1b
=25	=25	=25	=25	=25	=25
1V	B:maj	49.386	.	voice	1B 1dd# 1ff#
=26	=26	=26	=26	=26	=26
1V	B:maj	51.402	.	voice	1B 1dd# 1ff#
=27	=27	=27	=27	=27	=27
1I	E:maj	53.419	newline	voice	1E 1g# 1b
=28	=28	=28	=28	=28	=28
1I	E:maj	55.417	.	voice	1E 1g# 1b
=29	=29	=29	=29	=29	=29
1I	E:maj	57.415	.	voice	1E 1g# 1b
=30	=30	=30	=30	=30	=30
1I	E:maj	59.413	.	voice	1E 1g# 1b
=31	=31	=31	=31	=31	=31
1V	B:maj	61.412	newline	voice	1B 1dd# 1ff#
=32	=32	=32	=32	=32	=32
1V	B:maj	63.418	.	voice	1B 1dd# 1ff#
=33	=33	=33	=33	=33	=33
1I	E:maj	65.425	.	voice	1E 1g# 1b
=34	=34	=34	=34	=34	=34
1I	E:maj	67.432	.	voice	1E 1g# 1b
=35	=35	=35	=35	=35	=35
*>A_solo	*>A_solo	*>A_solo	*>A_solo	*>A_solo	*>A_solo
1I	E:maj	69.439	newline	guitar	1E 1g# 1b
=36	=36	=36	=36	=36	=36
1I	E:maj	71.503	.	guitar	1E 1g# 1b
=37	=37	=37	=37	=37	=37
1I	E:maj	73.567	.	guitar	1E 1g# 1b
=38	=38	=38	=38	=38	=38
1I	E:maj	75.631	.	guitar	1E 1g# 1b
=39	=39	=39	=39	=39	=39
1V	B:maj	77.694	newline	guitar	1B 1dd# 1ff#
=40	=40	=40	=40	=40	=40
1V	B:maj	79.731	.	guitar	1B 1dd# 1ff#
=41	=41	=41	=41	=41	=41
1I	E:maj	81.767	.	guitar	1E 1g# 1b
=42	=42	=42	=42	=42	=42
1I	E:maj	83.803	.	guitar	1E 1g# 1b
=43	=43	=43	=43	=43	=43
1I	E:maj	85.839	newline	guitar	1E 1g# 1b
=44	=44	=44	=44	=44	=44
1I	E:maj	87.847	.	guitar	1E 1g# 1b
=45	=45	=45	=45	=45	=45
1I	E:maj	89.855	.	guitar	1E 1g# 1b
=46	=46	=46	=46	=46	=46
1I	E:maj	91.862	.	guitar	1E 1g# 1b
=47	=47	=47	=47	=47	=47
1V	B:maj	93.87	newline	guitar	1B 1dd# 1ff#
=48	=48	=48	=48	=48	=48
1V	B:maj	95.917	.	guitar	1B 1dd# 1ff#
=49	=49	=49	=49	=49	=49
2I	E:maj	97.964	.	guitar	2E 2g# 2b
2I+m7	C:aug(b7,9)	98.987	.	guitar	2E 2g# 2b# 2dd#
=50	=50	=50	=50	=50	=50
1Im7c	E:7/5	100.011	.	guitar	1e 1g# 1B 1dd#
.	B-:(b5,b7,3)	101.034	.	guitar	.
=51	=51	=51	=51	=51	=51
*>B_verse	*>B_verse	*>B_verse	*>B_verse	*>B_verse	*>B_verse
1IV	A:maj	102.058	newline	voice	1A 1cc# 1ee
=52	=52	=52	=52	=52	=52
1IV	A:maj	104.114	.	voice	1A 1cc# 1ee
=53	=53	=53	=53	=53	=53
1IV	A:maj	106.171	.	voice	1A 1cc# 1ee
=54	=54	=54	=54	=54	=54
1IV	A:maj	108.227	.	voice	1A 1cc# 1ee
=55	=55	=55	=55	=55	=55
1I	E:maj	110.284	newline	voice	1E 1g# 1b
=56	=56	=56	=56	=56	=56
1I	E:maj	112.294	.	voice	1E 1g# 1b
=57	=57	=57	=57	=57	=57
1V	B:maj	114.304	.	voice	1B 1dd# 1ff#
=58	=58	=58	=58	=58	=58
1V	B:maj	116.314	.	voice	1B 1dd# 1ff#
=59	=59	=59	=59	=59	=59
1I	E:maj	118.324	newline	voice	1E 1g# 1b
=60	=60	=60	=60	=60	=60
1I	E:maj	120.383	.	voice	1E 1g# 1b
=61	=61	=61	=61	=61	=61
1I	E:maj	122.442	.	voice	1E 1g# 1b
=62	=62	=62	=62	=62	=62
1I	E:maj	124.501	.	voice	1E 1g# 1b
=63	=63	=63	=63	=63	=63
1V	B:maj	126.559	newline	voice	1B 1dd# 1ff#
=64	=64	=64	=64	=64	=64
1V	B:maj	128.629	.	voice	1B 1dd# 1ff#
=65	=65	=65	=65	=65	=65
2I	E:maj	130.699	.	voice	2E 2g# 2b
2IV	A:maj	131.734	.	voice	2A 2cc# 2ee
=66	=66	=66	=66	=66	=66
1I	E:maj	132.769	.	voice	1E 1g# 1b
1r;	N	138.202	.	r	1r;
1r;	N	140.565	.	r	1r;
*-	*-	*-	*-	*-	*-
!!!OTL: Blue Eyes Crying In The Rain
!!!COC: Willie Nelson
!!!BillboardChartDate: 1975/11/01
!!!BillboardPeak: 21
!!!BillboardWeeksOnChart: 18
!!!SampleTargetRank: 28
!!!SampleActualRank: 29
!!!SampleID#: 0126
!!!RDF**harmony: **recip + pitch class of root + harmonic quality
!!!RDF**harte: Chris Harte's syntax, used by MIREX
!!!RDF**phrase: newline = linebreak in original McGill transcription
!!!RDF**timestamp: McGill audio timestamp in seconds
!!!RDF**leadinstrument: original McGill primary instrumentation annotation
!!!RDT: 2017/01/12/
!!!ENC: Nathaniel Condit-Schultz
!!!EST: Awating manual error checking and editing.
